X:1
T:Brighton Camp (The Girl I Left Behind Me)
L:1/8
Q:1/4=110
M:2/4
K:G
"G""^Brighton Camp (The Girl I Left Behind Me)" z4 |"Em" z4 |"C" z4 |"D" z4 |
"G" z4 |"Em" z4 |"C""D" z4 |"G" z4 ::
"G" de fg |"G" d B/A/ G B |"C" de fg |"D" g a/g/"C" f g/f/ |
"Em" ed BA |"D" BG E>G |"C" F/G/A"D" DE/F/ |"G" G2 G z ::
